X:110
T:Millers Daughter THO3.110, The
O:England;London
M:C|
L:1/8
Z:vmp. Peter Dunk 2011.from a transcription by Fynn Titford-Mock 2006-9
B:Thompson's Compleat Collection of 200 Favourite Country Dances Vol. III.1765-72
Q:1/2=80
K:A
a|e/e/e e2 c>ded|ceAa f2 eg|e/e/e e2 c>ded|B/B/B ce f2 e:|
|:f/g/|a>ea>f ecAf/g/|aefg f2 ef/g/|aeaf ecaA|B/B/B ce f2 e:|

